packages/kaspersky-hexa-ui-icons/src/iconsSVGs/24/ShieldSolid.svg

<svg width="24" height="24" viewBox="0 0 24 24" fill="none" xmlns="http://www.w3.org/2000/svg">
<path d="M11.0997 2.3516C11.6774 2.05174 12.3648 2.05174 12.9425 2.3516L19.5029 5.75693C19.8342 5.92892 20.0422 6.27116 20.0422 6.64448V11.8148C20.0422 12.812 19.9295 13.8914 19.5121 14.9175C18.3866 17.6846 16.6035 19.4407 15.1016 20.5022C14.3517 21.0322 13.6698 21.3908 13.1694 21.6189C12.9096 21.7373 12.2344 21.9998 12.0078 21.9998C11.7617 21.9998 11.1983 21.784 10.8919 21.6543C10.3833 21.4391 9.69148 21.0949 8.93197 20.5711C7.40804 19.5202 5.61429 17.7471 4.49525 14.8687C4.10685 13.8696 4 12.8253 4 11.8567V6.64448C4 6.27116 4.20795 5.92892 4.53929 5.75693L11.0997 2.3516Z" fill="black"/>
</svg>

<svg xmlns="http://www.w3.org/2000/svg" width="24" height="24" fill="none" viewBox="0 0 24 24"><path fill="#000" fill-rule="evenodd" d="M11.0997 2.3516a2 2 0 0 1 1.8428 0l6.5604 3.4053a1 1 0 0 1 .5393.8876v5.1703c0 .9972-.1127 2.0766-.5301 3.1027-1.1255 2.7671-2.9086 4.5232-4.4105 5.5847-.7499.53-1.4318.8886-1.9322 1.1167-.2598.1184-.935.3809-1.1616.3809-.2461 0-.8095-.2158-1.1159-.3455-.5086-.2152-1.2004-.5594-1.96-1.0832-1.5239-1.0509-3.3176-2.824-4.4366-5.7024C4.1068 13.8696 4 12.8253 4 11.8567V6.6445a1 1 0 0 1 .5393-.8876z"/></svg>
